src/_assets/_icons/_figma/icon-star_pink.svg

<svg width="24" height="24" fill="none" xmlns="http://www.w3.org/2000/svg"><path d="M19.84 15.279l-.002.002A8.752 8.752 0 0 1 18 17.994a8.564 8.564 0 0 1-2.712 1.84l4.551-4.555zm0 0a8.365 8.365 0 0 0 0-6.558m0 6.558V8.72m0 0l-.002-.003m.001.003l-.001-.003m0 0a8.737 8.737 0 0 0-4.559-4.552m4.559 4.552l-4.559-4.552m0 0l-.003-.001m.003.001l-.003-.001m0 0a8.439 8.439 0 0 0-6.565 0m6.565 0H8.71m0 0h-.003m.003 0h-.003m0 0a8.525 8.525 0 0 0-2.712 1.85 8.777 8.777 0 0 0-1.834 2.712m4.546-4.561L4.162 8.727m0 0v.002m0-.002v.002m0 0a8.365 8.365 0 0 0 0 6.558m0-6.558v6.558m0 0v.002m0-.002v.002m0 0a8.752 8.752 0 0 0 1.839 2.713 8.576 8.576 0 0 0 2.71 1.84M4.162 15.29l4.55 4.554m0 0A8.216 8.216 0 0 0 12 20.5m-3.289-.657L12 20.5m0 0c1.13.007 2.25-.22 3.288-.666L12 20.5z" fill="#EC4899" stroke="#FAFAFA"/><path d="M9.74 16.183c-.265.203-.504.22-.715.065-.211-.154-.264-.386-.159-.688l.902-2.678-2.298-1.644a.634.634 0 0 1-.285-.423.528.528 0 0 1 .124-.43.595.595 0 0 1 .498-.179l2.813.02.853-2.697a.54.54 0 0 1 1.062 0l.853 2.698 2.813-.02a.588.588 0 0 1 .496.178.523.523 0 0 1 .126.43.634.634 0 0 1-.285.423l-2.298 1.644.902 2.678c.105.303.052.533-.159.688-.203.154-.45.134-.714-.065l-2.27-1.665-2.26 1.665z" fill="#fff"/></svg>

<?xml version="1.0" encoding="utf-8"?>
<!-- Generator: Adobe Illustrator 27.6.1, SVG Export Plug-In . SVG Version: 6.00 Build 0)  -->
<svg version="1.1" id="Layer_1" xmlns="http://www.w3.org/2000/svg" xmlns:xlink="http://www.w3.org/1999/xlink" x="0px" y="0px"
	 viewBox="0 0 24 24" style="enable-background:new 0 0 24 24;" xml:space="preserve">
<style type="text/css">
	.st0{fill:#EC4899;stroke:#FAFAFA;}
	.st1{fill:#FFFFFF;}
</style>
<path class="st0" d="M19.8,15.3L19.8,15.3c-0.4,1-1.1,1.9-1.8,2.7c-0.8,0.8-1.7,1.4-2.7,1.8L19.8,15.3L19.8,15.3z M19.8,15.3
	c0.9-2.1,0.9-4.5,0-6.6 M19.8,15.3V8.7 M19.8,8.7L19.8,8.7 M19.8,8.7L19.8,8.7 M19.8,8.7c-0.9-2-2.5-3.7-4.6-4.6 M19.8,8.7l-4.6-4.6
	 M15.3,4.2L15.3,4.2 M15.3,4.2L15.3,4.2 M15.3,4.2c-2.1-0.9-4.5-0.9-6.6,0 M15.3,4.2H8.7 M8.7,4.2L8.7,4.2 M8.7,4.2L8.7,4.2
	 M8.7,4.2C7.7,4.6,6.8,5.2,6,6C5.2,6.8,4.6,7.7,4.2,8.7 M8.7,4.2L4.2,8.7 M4.2,8.7L4.2,8.7 M4.2,8.7L4.2,8.7 M4.2,8.7
	c-0.9,2.1-0.9,4.5,0,6.6 M4.2,8.7v6.6 M4.2,15.3L4.2,15.3 M4.2,15.3L4.2,15.3 M4.2,15.3c0.4,1,1.1,1.9,1.8,2.7
	c0.8,0.8,1.7,1.4,2.7,1.8 M4.2,15.3l4.5,4.6 M8.7,19.8c1,0.4,2.2,0.7,3.3,0.7 M8.7,19.8l3.3,0.7 M12,20.5c1.1,0,2.2-0.2,3.3-0.7
	L12,20.5z"/>
<path class="st1" d="M9.7,16.2c-0.3,0.2-0.5,0.2-0.7,0.1c-0.2-0.2-0.3-0.4-0.2-0.7l0.9-2.7l-2.3-1.6c-0.2-0.1-0.3-0.2-0.3-0.4
	c0-0.2,0-0.3,0.1-0.4c0.1-0.1,0.3-0.2,0.5-0.2l2.8,0l0.9-2.7c0.1-0.3,0.3-0.5,0.6-0.4c0.2,0,0.4,0.2,0.4,0.4l0.9,2.7l2.8,0
	c0.2,0,0.4,0,0.5,0.2c0.1,0.1,0.2,0.3,0.1,0.4c0,0.2-0.1,0.3-0.3,0.4l-2.3,1.6l0.9,2.7c0.1,0.3,0.1,0.5-0.2,0.7
	c-0.2,0.2-0.4,0.1-0.7-0.1L12,14.5L9.7,16.2L9.7,16.2z"/>
</svg>
